packages/merlin-www-assets/imports/traveller/icons/figure-email.svg

<svg viewBox="0 0 16 16" xmlns="http://www.w3.org/2000/svg"><path d="m16 14h-16v-12h16zm-15-1h14v-9.4l-7 6.1-7-6.1zm.8-10 6.2 5.3 6.2-5.3z"/></svg>

<svg id="figure-email" xmlns="http://www.w3.org/2000/svg" viewBox="0 0 16 16"><path d="M16 14H0V2h16v12zM1 13h14V3.6L8 9.7 1 3.6V13zm.8-10L8 8.3 14.2 3H1.8z"/></svg>
